public/assets/images/contact/icon/03.svg

<svg width="41" height="41" viewBox="0 0 41 41" fill="none" xmlns="http://www.w3.org/2000/svg">
<path d="M37.8125 26.8594C39.375 27.5625 40.2344 29.2812 39.8438 30.9219L38.2031 38.2656C37.8125 39.9062 36.4062 41 34.6875 41C15.5469 41 0 25.4531 0 6.3125C0 4.59375 1.09375 3.1875 2.73438 2.875L10.0781 1.15625C11.7188 0.765625 13.4375 1.625 14.1406 3.1875L17.5 11.1562C18.125 12.5625 17.7344 14.2812 16.5625 15.2969L13.3594 17.875C15.625 21.9375 19.0625 25.375 23.125 27.6406L25.7812 24.5156C26.7188 23.2656 28.4375 22.875 29.8438 23.4219L37.8125 26.8594ZM35.7031 37.7188L37.4219 30.375C37.5781 29.8281 37.2656 29.3594 36.7969 29.125L28.9062 25.7656C28.4375 25.6094 27.9688 25.6875 27.6562 26.0781L24.4531 29.9844C24.0625 30.4531 23.4375 30.6094 22.9688 30.2969C17.6562 27.7188 13.2812 23.3438 10.7031 18.1094C10.3906 17.5625 10.5469 16.9375 11.0156 16.5469L14.9219 13.3438C15.3125 13.0312 15.3906 12.5625 15.2344 12.0938L11.875 4.20312C11.6406 3.8125 11.25 3.5 10.8594 3.5C10.7812 3.5 10.7031 3.57812 10.625 3.57812L3.28125 5.29688C2.8125 5.375 2.5 5.76562 2.5 6.3125C2.5 24.0469 16.9531 38.5781 34.6875 38.5781C35.2344 38.5781 35.625 38.1875 35.7031 37.7188Z" fill="#0F62FE"/>
</svg>

<svg xmlns="http://www.w3.org/2000/svg" width="41" height="41" fill="none" viewBox="0 0 41 41"><path fill="#0f62fe" d="M37.813 26.86c1.562.703 2.421 2.421 2.03 4.062l-1.64 7.344c-.39 1.64-1.797 2.734-3.516 2.734C15.548 41 0 25.453 0 6.313c0-1.72 1.094-3.125 2.734-3.438l7.344-1.719c1.64-.39 3.36.469 4.063 2.032l3.359 7.968c.625 1.406.234 3.125-.937 4.14l-3.204 2.579a25.5 25.5 0 0 0 9.766 9.766l2.656-3.125c.938-1.25 2.657-1.641 4.063-1.094zm-2.11 10.859 1.719-7.344c.156-.547-.156-1.016-.625-1.25l-7.89-3.36c-.47-.156-.938-.078-1.25.313l-3.204 3.906c-.39.47-1.015.625-1.484.313-5.313-2.578-9.688-6.953-12.266-12.188-.312-.547-.156-1.172.313-1.562l3.906-3.203c.39-.313.469-.781.312-1.25l-3.359-7.89c-.234-.391-.625-.704-1.016-.704-.078 0-.156.078-.234.078L3.281 5.297c-.469.078-.781.469-.781 1.016 0 17.734 14.453 32.265 32.188 32.265.546 0 .937-.39 1.015-.86"/></svg>
